X:1
T:Clairières dans le ciel
T:Je garde une médaille d'elle
T:Clairières dans le ciel
T:Lili Boulanger
T:12. Je garde une médaille d'elle 
T:Francis Jammes
T:Creative Commons copyright waiver (CC0 1.0 Universal)
C:Lili Boulanger
Z:Francis Jammes
Z:Creative Commons copyright waiver (CC0 1.0 Universal)
%%score 1 { ( 2 4 ) | ( 3 5 6 ) }
L:1/8
Q:1/4=71
M:4/4
K:F
V:1 treble nm="Chant\nVoice"
V:2 treble nm="Piano"
V:4 treble 
V:3 bass 
V:5 bass 
V:6 bass 
V:1
"^Assez lent et bien mesuré" z!p!"^avec gravité" d e e/ z/ (3f f !tenuto!f e3/2 e/ | %1
w: Je gar- de u- ne mé- dail- le|
 d4- d !tenuto!d !tenuto!e !tenuto!c | %2
w: d'elle _ où sont gra-|
 !tenuto!A2-!<(! A/ z/ A/ A/ !>!c2- c/ z/ !tenuto!c/ !tenuto!c/!<)! |!f! !>!f4- f2 z3/2!p! e/ | %4
w: vés _ u- ne da- te et les|mots: _ pri-|
!<(! d2- d z e2- e/ z/ e/ d/!<)! |!f! g8 | %6
w: er, _ croi- re, es- pé-|rer.|
!p! z"^las" !tenuto!d-!<(! d/ z/"^poco" !tenuto!e- e/ z/ f!<)!!>(! g3/2 g/ | %7
w: Mais _ moi, _ je vois sur-|
 d3!>)! (e f!<(! f g3/2 g/!<)! |!>(! !>!=g6!>)! e2) |!p! !fermata!z c/ c/ d2 !fermata!z d/ d/ e2 | %10
w: tout que la mé- daille est|som- bre:|Son ar- gent a noir- ci|
"^avec tendresse\n" !fermata!z2[Q:1/4=62] (f!<(! !tenuto!d!<)! =g2!>(! f !tenuto!e!>)! | %11
w: sur son col de co-|
[Q:1/4=70] e6 d2- | d) z z2 z4 | z8 | z8 |] %15
w: \- lom- be|_|||
V:2
!p! !tenuto![DAd]2!<(! !tenuto![EG=Be]2!<)! !tenuto![D_Acf]2!>(! !tenuto![EG=Be]2!>)! | %1
 !tenuto![DF=Ad]2 !tenuto![EG=Be]2 !tenuto![D_Acf]2 !tenuto![EG=Be]2 | %2
 !tenuto![D=Ad]4 !tenuto![EG=Be]4 |!f! !tenuto![D_Acf]8 | z!mf!!<(! !>![D=Ad]3 z !>![D_Acd]3!<)! | %5
 z!f!!<(! !>!d/>!>![dgd']/-!<)! [dgd']6 | %6
[K:bass]!p! (!tenuto![D,_A,CD]2!<(! !tenuto![D,E,^G,=B,E]2 !tenuto![F,_C_EF]2!<)!!>(! !tenuto![F,=G,=B,DG]2)!>)! | %7
!<(! (!tenuto![D,_A,CD]2 !tenuto![D,E,^G,=B,E]2 !tenuto![F,_C_EF]2 !tenuto![F,=G,=B,DG]2)!<)! | %8
[K:treble]!f! !>![D^Gd]8- | [DGd]8- | [DGd]8- | [D^Gd]6 z2 | %12
!pp! (!tenuto![dad']2 !tenuto![eg=be']2 !tenuto![d_ac'f']2 !tenuto![eg=be']2) | %13
 (!tenuto![d=ad']2 !tenuto![eg=be']2 !tenuto![d_ac'f']2 !tenuto![eg=be']2) | [dad'] z z2 z4 |] %15
V:3
 !tenuto![D,A,]2 !tenuto![C,G,=B,]2 !tenuto![_B,,F,_A,C]2 !tenuto![C,G,=B,]2 | %1
 !tenuto![D,=A,]2 !tenuto![C,G,=B,]2 !tenuto![_B,,F,_A,C]2 !tenuto![C,G,=B,]2 | %2
 [D,=A,]4 [C,G,=B,]4 | !tenuto![_B,,F,_A,C]8 | z !>![D,=A,]3 z !>![D,_A,C]3 | %5
 z [D,F,G,=B,]- [D,F,G,B,]6 | %6
 (!tenuto![F,,C,]2 !tenuto![E,,=B,,]2"^poco" !tenuto![_A,,_E,]2 !tenuto![G,,D,]2) | %7
 (!tenuto![F,,C,]2 !tenuto![E,,=B,,]2 !tenuto![_A,,_E,]2 !tenuto![G,,D,]2)!8vb(!!8vb)! | %8
 !>![B,,=E,B,]8- | [B,,E,B,]8- | [B,,E,B,]8- | [B,,E,B,]6 z2 | %12
 (!tenuto![D,,A,,D,]2 !tenuto![C,,G,,C,]2 !tenuto![_B,,,_A,,C,]2 !tenuto![C,,G,,C,]2) | %13
 (!tenuto![D,,=A,,D,]2 !tenuto![C,,G,,C,]2 !tenuto![_B,,,_A,,C,]2 !tenuto![C,,G,,C,]2) | %14
 [D,,=A,,D,] z z2 .D,,, z z2 |] %15
V:4
 x8 | x8 | x2!<(! x2 x2 x2!<)! | x8 | x8 | z [DFG=B]- [DFGB]6 |[K:bass] x8 | x8 |[K:treble] x8 | %9
 x8 | x8 | x8 | x8 | x8 | x8 |] %15
V:5
 x8 | x8 | x8 | z2!mf!!>(! [D,,,D,,]4!>)!!p! [D,,,D,,] z | x8 | %5
 z2 !>![D,,,D,,] !>![D,,,D,,]2 !>![D,,,D,,]2 !>![D,,,D,,] | %6
 z (.[D,,,D,,]2 .[D,,,D,,]2 .[D,,,D,,]2 .[D,,,D,,]) | %7
 z (.[D,,,D,,]2 .[D,,,D,,]2 .[D,,,D,,]2 .[D,,,D,,])!8vb(!!8vb)! | x8 | x8 | x8 | x8 | x8 | x8 | %14
 x8 |] %15
V:6
 x8 | x8 | x8 | x8 | x8 | x8 | x8 | x31/4!8vb(!!ped!{/!>!B,,,,} x/4!8vb)! | x8 | x8 | x8 | %11
 x8!ped-up! | x8 | x8 |!ped! x5!ped-up! x3 |] %15

